X:1
T:Title
%%score { ( 1 3 ) | 2 }
L:1/8
M:3/4
K:G
V:1 treble nm="Grand Piano"
V:3 treble 
V:2 treble 
V:1
 z2 z2[Q:1/4=96] DG | B3 _B =BA | G2 D2 FG | [FA]3 [FA] [Fd][FA] |[M:2/4] B4 |[M:1/4] DG | %6
[M:3/4] B3 B B[=Fd] | [Ed]2 [Ec]2 [EG][EA] | B3 D BA |[M:2/4] [G,B,G]4 |[M:1/4] Bc | %11
[M:3/4] .G2 z2 z2 | B,B, B,2 GA | B3 B d[DGd] |[M:2/4] [DFA]4 |[M:1/4] Bc | %16
[M:3/4] [DB]-[D-GB-] [DGB]2 Bd | [Ec]4 z2 | B3 D BA |[M:2/4] [B,G]4 |] %20
V:2
 z2 z2 [G,B,][G,B,D] | [G,DG]3 [G,^CG] [G,DG][K:bass][G,=CD] | [G,B,D]2 [G,B,]2 [D,A,D][D,B,D] | %3
 [D,C]3 [D,C] [D,A,][D,D] |[M:2/4][K:treble] [G,DG]4 |[M:1/4] [G,B,][G,B,D] | %6
[M:3/4] [G,DG]3 [G,DG] [G,DG][K:bass][B,,G,] | [C,G,]2 [C,G,]2 [C,G,][C,G,] | %8
 [D,G,D]3 [D,G,B,] [D,G,D][D,F,C] |[M:2/4] G,,4 |[M:1/4] DE |[M:3/4] G,G, G,2 B,C | %12
 G,,G,, G,,2 [D,G,D][D,F,D] | [G,D]3 [G,D] [G,B,G][K:bass]B,, |[M:2/4] D,4 |[M:1/4] DE | %16
[M:3/4] G,G, G,2[K:treble] G=F | [C,G,]C, C,2 C,[C,G,] | [D,G,D]3 [D,G,B,] [D,G,D][D,F,C] | %19
[M:2/4] [G,,G,]4 |] %20
V:3
 x6 | x6 | x6 | x6 |[M:2/4] x4 |[M:1/4] x2 |[M:3/4] x6 | x6 | x6 |[M:2/4] x4 |[M:1/4] x2 | %11
[M:3/4] [DB]-[D-GB-] [DGB]2 DE | D4 z2 | x6 |[M:2/4] x4 |[M:1/4] x2 |[M:3/4] .G2 z2 z2 | %17
 z G, G,2 [G,EG][^DA] | x6 |[M:2/4] x4 |] %20

